dist/img/svg/competency-3.svg

<svg width="81" height="81" viewBox="0 0 81 81" fill="none" xmlns="http://www.w3.org/2000/svg">
<path d="M36.5972 67H10C7.23858 67 5 64.7614 5 62V58.5M71.1111 67V67C73.2589 67 75 65.2589 75 63.1111V58.5M5 58.5V22C5 19.2386 7.23858 17 10 17H12.2059H68.8235H70C72.7614 17 75 19.2386 75 22V58.5M5 58.5H36.5972M75 58.5H71.1111" stroke="#F14D34" stroke-width="2.5"/>
<path d="M18 28L14 31.5L18 35" stroke="#050C33" stroke-width="2.5"/>
<path d="M28 28L32 31.5L28 35" stroke="#050C33" stroke-width="2.5"/>
<path d="M21 37L25 25" stroke="#050C33" stroke-width="2.5"/>
<path d="M42 28.5C43.4815 28.5 59.284 28.5 67 28.5" stroke="#F14D34" stroke-width="2.5"/>
<path d="M42 33C43.4815 33 59.284 33 67 33" stroke="#F14D34" stroke-width="2.5"/>
<path d="M42 37C43.4815 37 59.284 37 67 37" stroke="#F14D34" stroke-width="2.5"/>
<path d="M42 41C42.5926 41 48.9136 41 52 41" stroke="#F14D34" stroke-width="2.5"/>
<path d="M11 44C12.2444 44 25.5185 44 32 44" stroke="#F14D34" stroke-width="2.5"/>
<path d="M11 52C12.2444 52 25.5185 52 32 52" stroke="#F14D34" stroke-width="2.5"/>
<path d="M11 48C11.8296 48 20.679 48 25 48" stroke="#F14D34" stroke-width="2.5"/>
<path d="M32 67L32 76" stroke="#F14D34" stroke-width="2.5"/>
<path d="M37 76H23" stroke="#F14D34" stroke-width="2.5"/>
<rect x="39.25" y="51.25" width="30.5" height="9.5" rx="3.75" stroke="#F14D34" stroke-width="2.5"/>
<path d="M46 56C47.0074 56 57.7531 56 63 56" stroke="#F14D34" stroke-width="2.5"/>
<rect x="39.25" y="65.25" width="30.5" height="9.5" rx="3.75" stroke="#F14D34" stroke-width="2.5"/>
<path d="M46 70C47.0074 70 57.7531 70 63 70" stroke="#F14D34" stroke-width="2.5"/>
</svg>

<svg width="81" height="81" fill="none" xmlns="http://www.w3.org/2000/svg"><path d="M36.597 67H10a5 5 0 01-5-5v-3.5M71.111 67v0A3.889 3.889 0 0075 63.111V58.5m-70 0V22a5 5 0 015-5h60a5 5 0 015 5v36.5m-70 0h31.597M75 58.5h-3.889" stroke="#F14D34" stroke-width="2.5"/><path d="M18 28l-4 3.5 4 3.5m10-7l4 3.5-4 3.5m-7 2l4-12" stroke="#050C33" stroke-width="2.5"/><path d="M42 28.5h25M42 33h25m-25 4h25m-25 4h10m-41 3h21m-21 8h21m-21-4h14m7 19v9m5 0H23" stroke="#F14D34" stroke-width="2.5"/><rect x="39.25" y="51.25" width="30.5" height="9.5" rx="3.75" stroke="#F14D34" stroke-width="2.5"/><path d="M46 56h17" stroke="#F14D34" stroke-width="2.5"/><rect x="39.25" y="65.25" width="30.5" height="9.5" rx="3.75" stroke="#F14D34" stroke-width="2.5"/><path d="M46 70h17" stroke="#F14D34" stroke-width="2.5"/></svg>
